svgs/sharp-regular/fax.svg

<svg xmlns="http://www.w3.org/2000/svg" viewBox="0 0 512 512"><!--! Font Awesome Pro 6.6.0 by @fontawesome - https://fontawesome.com License - https://fontawesome.com/license (Commercial License) Copyright 2024 Fonticons, Inc. --><path d="M152 0L128 0l0 24 0 104-80 0L0 128l0 48L0 464l0 48 48 0 48 0 32 0 48 0 312 0 24 0 0-24 0-272 0-24-24 0-312 0 0-16 0-48 0-80 214.1 0L432 89.9l0 70.1 48 0 0-80 0-9.9-7-7L417 7l-7-7L400 0 152 0zm24 240l288 0 0 224-288 0 0-224zM128 464l-32 0-48 0 0-288 80 0 0 40 0 24 0 224zM304 272l-64 0 0 64 64 0 0-64zm-64 96l0 64 64 0 0-64-64 0zm160-96l-64 0 0 64 64 0 0-64zm-64 96l0 64 64 0 0-64-64 0z"/></svg>

<svg xmlns="http://www.w3.org/2000/svg" viewBox="0 0 512 512"><!--! Font Awesome Pro 6.4.2 by @fontawesome - https://fontawesome.com License - https://fontawesome.com/license (Commercial License) Copyright 2023 Fonticons, Inc. --><path d="M152 0H128V24 128H48 0v48V464v48H48 96h32 48H488h24V488 216 192H488 176V176 128 48H390.1L432 89.9V160h48V80 70.1l-7-7L417 7l-7-7H400 152zm24 240H464V464H176V240zM128 464H96 48V176h80v40 24V464zM304 272H240v64h64V272zm-64 96v64h64V368H240zm160-96H336v64h64V272zm-64 96v64h64V368H336z"/></svg>
